X: 267
T:Benedicta es, celorum regina / Per illud ave prolatum / Nunc mater exora natum
N: Derived from Jos2313-Benedicta_es_celorum.krn
C: Josquin des Prez
%%abc-version 2.0
%%abcx-abcm2ps-target-version 5.9.1 (29 Sep 2008)
%%abc-creator hum2abc beta
%%abcx-conversion-date 2019/02/12 16:15:52
%%abc-edited-by Jesse Rodin
%%abc-edited-by Will Watson 2011/08/05
%%abcx-initial-encoding-date 2011/08/05/
%%humdrum-veritas 4279557531
%%humdrum-veritas-data 3388364472
%%linebreak <none>
%%barnumbers 0
L: 1/4
M: 2/1
Q: 1/2=120
V: 1 clef=treble
V: 2 clef=treble-8
V: 3 clef=treble-8
V: 4 clef=treble-8
V: 5 clef=bass
V: 6 clef=bass
K: C
[V:1] G8 | 
[V:2] G4G3A | 
[V:3] z8 | 
[V:4] z8 | 
[V:5] z8 | 
[V:6] z8 | 
[V:1] G8 | 
[V:2] B2c2G2g2- | 
[V:3] z8 | 
[V:4] z8 | 
[V:5] z8 | 
[V:6] z8 | 
[V:1] A8 | 
[V:2] g2fef2d2- | 
[V:3] z8 | 
[V:4] z8 | 
[V:5] z8 | 
[V:6] z8 | 
[V:1] A8 | 
[V:2] dcdefgaf | 
[V:3] z8 | 
[V:4] z8 | 
[V:5] z8 | 
[V:6] z8 | 
[V:1] B8 | 
[V:2] g8 | 
[V:3] z8 | 
[V:4] G8 | 
[V:5] z8 | 
[V:6] G,,4G,,3A,, | 
[V:1] G8 | 
[V:2] z8 | 
[V:3] z8 | 
[V:4] G8 | 
[V:5] z8 | 
[V:6] B,,2C,2G,,2G,2- | 
[V:1] z8 | 
[V:2] z8 | 
[V:3] z8 | 
[V:4] A8 | 
[V:5] z8 | 
[V:6] G,2F,E,F,2D,2- | 
[V:1] z8 | 
[V:2] z8 | 
[V:3] z8 | 
[V:4] A8 | 
[V:5] z8 | 
[V:6] D,C,D,E,F,G,A,F, | 
[V:1] z8 | 
[V:2] z4G4 | 
[V:3] z2G2GABc | 
[V:4] B8 | 
[V:5] G,,4G,,3A,, | 
[V:6] G,8 | 
[V:1] z8 | 
[V:2] G3AB2G2 | 
[V:3] d2e2d4 | 
[V:4] G8 | 
[V:5] B,,2C,2G,,2G,2- | 
[V:6] z8 | 
[V:1] A8 | 
[V:2] A4D2d2 | 
[V:3] D8 | 
[V:4] z8 | 
[V:5] G,2F,E,F,G,A,F, | 
[V:6] z4D,4 | 
[V:1] G4c4- | 
[V:2] B2c3BG2 | 
[V:3] z8 | 
[V:4] z8 | 
[V:5] G,2C,D,E,F,G,2- | 
[V:6] E,4C,3B,, | 
[V:1] c4B4 | 
[V:2] ABcABcde | 
[V:3] z4z2G2 | 
[V:4] z8 | 
[V:5] G,^F,F,E,G,4 | 
[V:6] A,,4G,,4 | 
[V:1] A4G4- | 
[V:2] f2d3ccB | 
[V:3] A2F2G2C2 | 
[V:4] z8 | 
[V:5] z8 | 
[V:6] D,4E,4 | 
[V:1] G2^FEF4 | 
[V:2] d4z2D2 | 
[V:3] [M:2/1](3F3GA2[M:2/1]D2d2 | 
[V:4] A8 | 
[V:5] z4D,4 | 
[V:6] D,8 | 
[V:1] G8 | 
[V:2] G2CDEFG2- | 
[V:3] B2c3BG2 | 
[V:4] G4c4- | 
[V:5] E,4C,3B,, | 
[V:6] z8 | 
[V:1] z8 | 
[V:2] G2F2G4 | 
[V:3] ABcABcde | 
[V:4] c4B4 | 
[V:5] A,,4G,,4 | 
[V:6] z8 | 
[V:1] z8 | 
[V:2] F4G4 | 
[V:3] f2d3ccB | 
[V:4] A4G4- | 
[V:5] D,4E,4 | 
[V:6] z8 | 
[V:1] A8 | 
[V:2] A8 | 
[V:3] d8 | 
[V:4] G2^FE^F4 | 
[V:5] D,8 | 
[V:6] z4D,4- | 
[V:1] B6G2 | 
[V:2] G8 | 
[V:3] z2d2g4- | 
[V:4] G8 | 
[V:5] G,,8 | 
[V:6] D,4E,4- | 
[V:1] G4G4 | 
[V:2] z2G2c3A | 
[V:3] g2e2e2c2- | 
[V:4] z8 | 
[V:5] z8 | 
[V:6] E,2C,2C,4 | 
[V:1] F4E2G2- | 
[V:2] A2d2e2d2 | 
[V:3] c2B2c2d2 | 
[V:4] z8 | 
[V:5] z8 | 
[V:6] D,4C,2B,,2 | 
[V:1] G2^FEF4 | 
[V:2] [M:2/1](3:2:6c3Bc2A3GA2 | 
[V:3] e4d4 | 
[V:4] A8 | 
[V:5] z4D,4- | 
[V:6] C,4D,4 | 
[V:1] G8 | 
[V:2] [M:2/1]G8 | 
[V:3] z2d2g4- | 
[V:4] B6G2 | 
[V:5] D,4E,4- | 
[V:6] G,,8 | 
[V:1] z8 | 
[V:2] z2G2c3A | 
[V:3] g2e2e2c2- | 
[V:4] G4G4 | 
[V:5] E,2C,2C,4 | 
[V:6] z8 | 
[V:1] z8 | 
[V:2] A2d2e2d2 | 
[V:3] c2B2c2d2 | 
[V:4] F4E2G2- | 
[V:5] D,4C,2B,,2 | 
[V:6] z8 | 
[V:1] z4A4 | 
[V:2] [M:2/1](3:2:6c3Bc2A3GA2 | 
[V:3] e4d4 | 
[V:4] G2^FE^F4 | 
[V:5] C,4D,4 | 
[V:6] z8 | 
[V:1] B6AG | 
[V:2] [M:2/1]G8 | 
[V:3] z4g4- | 
[V:4] G8 | 
[V:5] G,,8 | 
[V:6] z8 | 
[V:1] B2A2c3B | 
[V:2] z8 | 
[V:3] g2f2e2d2 | 
[V:4] z8 | 
[V:5] z8 | 
[V:6] z8 | 
[V:1] AGG3^FFE | 
[V:2] z8 | 
[V:3] c2B2A4 | 
[V:4] z4A4 | 
[V:5] z8 | 
[V:6] z8 | 
[V:1] G8 | 
[V:2] z8 | 
[V:3] G8 | 
[V:4] B6AG | 
[V:5] z4G,4- | 
[V:6] z8 | 
[V:1] z8 | 
[V:2] z8 | 
[V:3] z8 | 
[V:4] B2A2c3B | 
[V:5] G,2F,2E,2D,2 | 
[V:6] z8 | 
[V:1] z8 | 
[V:2] z4A4 | 
[V:3] z8 | 
[V:4] AGG3^F^FE | 
[V:5] C,2B,,2A,,4 | 
[V:6] z8 | 
[V:1] z8 | 
[V:2] B6AG | 
[V:3] z8 | 
[V:4] G8 | 
[V:5] G,,8 | 
[V:6] z4G,4- | 
[V:1] z8 | 
[V:2] B2A2c3B | 
[V:3] z8 | 
[V:4] z8 | 
[V:5] z8 | 
[V:6] G,2F,2E,2D,2 | 
[V:1] z8 | 
[V:2] AGG3^F^FE | 
[V:3] z8 | 
[V:4] z8 | 
[V:5] z8 | 
[V:6] C,2B,,2A,,4 | 
[V:1] z8 | 
[V:2] G4d4- | 
[V:3] z8 | 
[V:4] z8 | 
[V:5] z8 | 
[V:6] G,,8- | 
[V:1] G8 | 
[V:2] d4d4 | 
[V:3] B8 | 
[V:4] z8 | 
[V:5] G,8 | 
[V:6] G,,8 | 
[V:1] G4A4 | 
[V:2] e4e4 | 
[V:3] c4c4 | 
[V:4] z8 | 
[V:5] E,4A,4 | 
[V:6] C,4A,,4 | 
[V:1] A4B4- | 
[V:2] f4d4 | 
[V:3] d2d3cBA | 
[V:4] z8 | 
[V:5] D,4G,3F, | 
[V:6] D,4G,,4 | 
[V:1] B2G2G4 | 
[V:2] g6e2 | 
[V:3] B4z2e2- | 
[V:4] G8 | 
[V:5] E,D,E,2C,2G,2- | 
[V:6] z4C,4- | 
[V:1] z2c3BAG | 
[V:2] e8 | 
[V:3] edcBc4 | 
[V:4] G4A4 | 
[V:5] G,F,E,D,E,4 | 
[V:6] C,4A,,4 | 
[V:1] A4G4 | 
[V:2] f4d4- | 
[V:3] d6B2 | 
[V:4] A4B4- | 
[V:5] D,6G,,2 | 
[V:6] D,4G,,4 | 
[V:1] z8 | 
[V:2] d2d2e3c | 
[V:3] B4c4 | 
[V:4] B2G2G2c2- | 
[V:5] G,,4z4 | 
[V:6] G,4E,2A,2- | 
[V:1] z4c4- | 
[V:2] c4z2f2 | 
[V:3] z2c2A2c2- | 
[V:4] cBAGA4 | 
[V:5] z8 | 
[V:6] A,G,F,E,F,3E, | 
[V:1] c4B4 | 
[V:2] e2c2d3e | 
[V:3] cBGABcd2- | 
[V:4] G8 | 
[V:5] C,4G,,4 | 
[V:6] C,4G,4 | 
[V:1] A4A4 | 
[V:2] f4e2c2 | 
[V:3] dcABcde2- | 
[V:4] z4c4- | 
[V:5] D,4A,,3B,, | 
[V:6] F,4A,4 | 
[V:1] G8 | 
[V:2] e4d2B2 | 
[V:3] efg3fde | 
[V:4] c4B4 | 
[V:5] C,4G,,4 | 
[V:6] E,3F,G,D,G,2 | 
[V:1] z4A4 | 
[V:2] c4d4- | 
[V:3] f2g4^f2 | 
[V:4] A4A4 | 
[V:5] z8 | 
[V:6] F,2E,2D,4 | 
[V:1] B6G2 | 
[V:2] d2B2B4 | 
[V:3] g4d4 | 
[V:4] G8 | 
[V:5] z8 | 
[V:6] G,,8 | 
[V:1] G4G4 | 
[V:2] z8 | 
[V:3] e3cc2e2- | 
[V:4] z8 | 
[V:5] z8 | 
[V:6] z8 | 
[V:1] F4E4 | 
[V:2] z8 | 
[V:3] edd4c2 | 
[V:4] z8 | 
[V:5] z8 | 
[V:6] z8 | 
[V:1] F3GABA2- | 
[V:2] z8 | 
[V:3] d3Bc2d2 | 
[V:4] z8 | 
[V:5] z4z2D,2 | 
[V:6] z8 | 
[V:1] AGG4^F2 | 
[V:2] z8 | 
[V:3] G4A4 | 
[V:4] z8 | 
[V:5] E,4D,4 | 
[V:6] z8 | 
[V:1] G8 | 
[V:2] z4e4 | 
[V:3] G4z2G2 | 
[V:4] z8 | 
[V:5] z2G,2C,2E,2 | 
[V:6] z8 | 
[V:1] z8 | 
[V:2] f6d2 | 
[V:3] AGFEF4 | 
[V:4] A8 | 
[V:5] D,3C,D,4 | 
[V:6] z8 | 
[V:1] z8 | 
[V:2] d4d4 | 
[V:3] G3ABcdB | 
[V:4] B6G2 | 
[V:5] G,,4G,4 | 
[V:6] z4G,,4 | 
[V:1] z8 | 
[V:2] c4B4 | 
[V:3] c2e2d3c | 
[V:4] G4G4 | 
[V:5] E,3F,G,A,B,G, | 
[V:6] C,4G,,4 | 
[V:1] z8 | 
[V:2] c3defe2- | 
[V:3] A4c3B | 
[V:4] F4E4 | 
[V:5] A,2F,2G,4 | 
[V:6] z4C,4 | 
[V:1] z8 | 
[V:2] edd4^c2 | 
[V:3] AGA2z2A2 | 
[V:4] F3GABA2- | 
[V:5] F,2D,2E,4 | 
[V:6] D,4A,,4 | 
[V:1] z4A4 | 
[V:2] d8 | 
[V:3] F2G2A4 | 
[V:4] AGG4^F2 | 
[V:5] D,8 | 
[V:6] B,,2G,,2D,4 | 
[V:1] B6A2 | 
[V:2] z4d4 | 
[V:3] G4z4 | 
[V:4] G8 | 
[V:5] z4G,4 | 
[V:6] G,,8 | 
[V:1] GFGEF2A2- | 
[V:2] e4d4 | 
[V:3] z2G2F2D2 | 
[V:4] z8 | 
[V:5] E,2C,2D,4 | 
[V:6] z8 | 
[V:1] AGG3^FFE | 
[V:2] B2c2A4 | 
[V:3] G2E2F2D2 | 
[V:4] z4A4 | 
[V:5] E,2C,2D,4 | 
[V:6] z8 | 
[V:1] G8 | 
[V:2] G8 | 
[V:3] d4z2d2 | 
[V:4] B6A2 | 
[V:5] G,,8 | 
[V:6] z4D,4 | 
[V:1] z8 | 
[V:2] z8 | 
[V:3] B2c2d4 | 
[V:4] GFGEF2A2- | 
[V:5] z2G,2A,2F,2 | 
[V:6] E,4D,4 | 
[V:1] z8 | 
[V:2] z8 | 
[V:3] d2e4dc | 
[V:4] AGG4^F2 | 
[V:5] G,4C,4 | 
[V:6] B,,2C,2A,,4 | 
[V:1] z2GABcd2- | 
[V:2] GABcd2B2 | 
[V:3] B2G2g4 | 
[V:4] G8 | 
[V:5] z2G,2G,2G,2 | 
[V:6] G,,8 | 
[V:1] dcc2B2d2- | 
[V:2] c2A2GABc | 
[V:3] e2f2d4 | 
[V:4] z8 | 
[V:5] A,2F,2G,4 | 
[V:6] z4z2G,2 | 
[V:1] d2d2[M:2/1](3c2A2c2 | 
[V:2] d2B2c2A2 | 
[V:3] z2g2e2f2 | 
[V:4] z8 | 
[V:5] G,,4z4 | 
[V:6] G,2G,2A,2F,2 | 
[V:1] [M:2/1]B2GABcd2- | 
[V:2] GABcd2B2 | 
[V:3] [M:2/1](3d2e2d2[M:2/1]g4 | 
[V:4] z8 | 
[V:5] z2G,2G,2G,2 | 
[V:6] G,4G,,4 | 
[V:1] dcc4B2 | 
[V:2] c2A2B2G2- | 
[V:3] e2f2d4 | 
[V:4] z8 | 
[V:5] A,2F,2G,4 | 
[V:6] z8 | 
[V:1] c8 | 
[V:2] G2A2G2A2- | 
[V:3] c8 | 
[V:4] z8 | 
[V:5] C,8 | 
[V:6] z4C,4 | 
[V:1] z8 | 
[V:2] AGG4^F2 | 
[V:3] z8 | 
[V:4] z4c4 | 
[V:5] z8 | 
[V:6] B,,2G,,2A,,4 | 
[V:1] z8 | 
[V:2] G4z4 | 
[V:3] z8 | 
[V:4] B2G2A4 | 
[V:5] G,4F,2D,2 | 
[V:6] G,,4z4 | 
[V:1] z8 | 
[V:2] z8 | 
[V:3] z8 | 
[V:4] G4d4 | 
[V:5] E,4D,4 | 
[V:6] C,4B,,2G,,2 | 
[V:1] z8 | 
[V:2] z8 | 
[V:3] z8 | 
[V:4] c2A2B4 | 
[V:5] z4G,4 | 
[V:6] A,,4G,,4 | 
[V:1] z8 | 
[V:2] z8 | 
[V:3] z8 | 
[V:4] AGABcdec | 
[V:5] F,2D,2E,4 | 
[V:6] z4A,,4 | 
[V:1] z8 | 
[V:2] z8 | 
[V:3] z8 | 
[V:4] d4z2B2 | 
[V:5] D,4G,4 | 
[V:6] B,,3G,,G,,4 | 
[V:1] z8 | 
[V:2] z8 | 
[V:3] z8 | 
[V:4] c2A2d4 | 
[V:5] A,3F,F,2D,2 | 
[V:6] z2D,3C,B,,2 | 
[V:1] z8 | 
[V:2] z8 | 
[V:3] z8 | 
[V:4] c2B2A4 | 
[V:5] E,2G,2^F,3E, | 
[V:6] A,,2G,,2D,4 | 
[V:1] z8 | 
[V:2] z8 | 
[V:3] z8 | 
[V:4] G8 | 
[V:5] G,4E,4- | 
[V:6] G,,4C,4- | 
[V:1] z8 | 
[V:2] z8 | 
[V:3] z8 | 
[V:4] A3AB2A2- | 
[V:5] E,2E,2F,4 | 
[V:6] C,2C,2D,4 | 
[V:1] z8 | 
[V:2] z8 | 
[V:3] z8 | 
[V:4] AGG4^F2 | 
[V:5] E,2D,3C,C,B,, | 
[V:6] C,2B,,2A,,4 | 
[V:1] z8 | 
[V:2] z8 | 
[V:3] z8 | 
[V:4] G4A3A | 
[V:5] D,3E,F,4 | 
[V:6] G,,4D,3D, | 
[V:1] z8 | 
[V:2] z4d4 | 
[V:3] z8 | 
[V:4] B2A3GG2- | 
[V:5] z8 | 
[V:6] D,2C,2B,,4 | 
[V:1] c4B2G2 | 
[V:2] c2A2B4 | 
[V:3] z4g4 | 
[V:4] G2^F2G4 | 
[V:5] z4z2G,2 | 
[V:6] A,,4G,,4 | 
[V:1] A4G4 | 
[V:2] A4z4 | 
[V:3] f2d2e4 | 
[V:4] z4c4 | 
[V:5] D,2F,2C,4 | 
[V:6] z4z2C,2 | 
[V:1] z4c4 | 
[V:2] d4c2A2 | 
[V:3] d4z4 | 
[V:4] B2G2A4 | 
[V:5] G,4z4 | 
[V:6] G,,2G,3^F,F,E, | 
[V:1] B2G2A4 | 
[V:2] B4A3B | 
[V:3] g4f2d2 | 
[V:4] G4z4 | 
[V:5] z2G,2D,2F,2 | 
[V:6] G,4z4 | 
[V:1] G4z4 | 
[V:2] c2G2z2d2 | 
[V:3] e4d4 | 
[V:4] c4B2G2 | 
[V:5] C,4G,2G,,2 | 
[V:6] z2C,2G,,2G,2- | 
[V:1] A4B3G | 
[V:2] d4B4 | 
[V:3] z2d2d4 | 
[V:4] A4G4 | 
[V:5] D,4G,,4 | 
[V:6] G,^F,F,E,G,4 | 
[V:1] G4z2A2 | 
[V:2] z2d2d4 | 
[V:3] B4z2d2 | 
[V:4] z2G2A4 | 
[V:5] z2G,2^F,3E, | 
[V:6] z2G,,2D,4 | 
[V:1] B3GG2d2 | 
[V:2] B4z2d2 | 
[V:3] d4B4 | 
[V:4] G4z2B2 | 
[V:5] G,4z2G,,2 | 
[V:6] G,,4z2G,2 | 
[V:1] c2B2A4 | 
[V:2] e2g2^f3e | 
[V:3] z8 | 
[V:4] c2d2d4 | 
[V:5] C,2G,,2D,4 | 
[V:6] G,2G,2A,4 | 
[V:1] B4d4 | 
[V:2] g4z2d2 | 
[V:3] z4z2B2 | 
[V:4] B8 | 
[V:5] G,,4z2G,2 | 
[V:6] G,4z2G,,2 | 
[V:1] c2B2A4 | 
[V:2] e2g2^f3e | 
[V:3] c2d2d4 | 
[V:4] z8 | 
[V:5] G,2G,2A,4 | 
[V:6] C,2G,,2D,4 | 
[V:1] B4z4 | 
[V:2] g4z4 | 
[V:3] B4z4 | 
[V:4] z8 | 
[V:5] G,8 | 
[V:6] G,,4z4 | 
[V:1] B8 | 
[V:2] g8 | 
[V:3] d8 | 
[V:4] z4G4- | 
[V:5] z8 | 
[V:6] G,,8 | 
[V:1] c8- | 
[V:2] e8 | 
[V:3] c8 | 
[V:4] G4c4- | 
[V:5] G,8 | 
[V:6] C,8 | 
[V:1] c8 | 
[V:2] e8 | 
[V:3] c8 | 
[V:4] c2A2A4- | 
[V:5] A,8 | 
[V:6] A,,8 | 
[V:1] A8 | 
[V:2] f6d2 | 
[V:3] d8 | 
[V:4] A4d4- | 
[V:5] F,8 | 
[V:6] D,8 | 
[V:1] G8 | 
[V:2] d8 | 
[V:3] z4d4- | 
[V:4] d2c2B4 | 
[V:5] G,8 | 
[V:6] G,,8 | 
[V:1] F8 | 
[V:2] z4f4 | 
[V:3] d4A4 | 
[V:4] A8 | 
[V:5] z4D,4 | 
[V:6] D,8 | 
[V:1] G8 | 
[V:2] e3de4 | 
[V:3] c8 | 
[V:4] z4G4 | 
[V:5] E,6F,2 | 
[V:6] C,6B,,2 | 
[V:1] G8- | 
[V:2] d8- | 
[V:3] B8- | 
[V:4] G6F2 | 
[V:5] G,8- | 
[V:6] G,,8- | 
[V:1] G8 ||  
[V:2] d8 ||  
[V:3] B8 ||  
[V:4] D8 ||  
[V:5] G,8 ||  
[V:6] G,,8 ||  
[V:1]  [K:C] [K:clef=treble][M:2/1]z4A4 | 
[V:2]  [K:C] [K:clef=treble-8][M:2/1]d4f2f2 | 
[V:3]  [K:C] [K:clef=treble-8][M:2/1]z8 | 
[V:4]  [K:C] [K:clef=treble-8][M:2/1]z8 | 
[V:5]  [K:C] [K:clef=bass][M:2/1]z8 | 
[V:6]  [K:C] [K:clef=bass][M:2/1]z8 | 
[V:1] c2c2c4 | 
[V:2] f4e2cd | 
[V:3] z8 | 
[V:4] z8 | 
[V:5] z8 | 
[V:6] z8 | 
[V:1] B2G2A4 | 
[V:2] efg3^f^fe | 
[V:3] z8 | 
[V:4] z8 | 
[V:5] z8 | 
[V:6] z8 | 
[V:1] GABcd3c | 
[V:2] g2GABcde | 
[V:3] z8 | 
[V:4] z8 | 
[V:5] z8 | 
[V:6] z8 | 
[V:1] A2G2A4 | 
[V:2] f2g3^f^fe | 
[V:3] z8 | 
[V:4] z8 | 
[V:5] z8 | 
[V:6] z8 | 
[V:1] G4z2G2 | 
[V:2] g8 | 
[V:3] z8 | 
[V:4] z8 | 
[V:5] z8 | 
[V:6] z8 | 
[V:1] A2B2c3B | 
[V:2] z2G2A2B2 | 
[V:3] z8 | 
[V:4] z8 | 
[V:5] z8 | 
[V:6] z8 | 
[V:1] G2A4B2- | 
[V:2] c6B2 | 
[V:3] z8 | 
[V:4] z8 | 
[V:5] z8 | 
[V:6] z8 | 
[V:1] BAG3^FFE | 
[V:2] G3BA4 | 
[V:3] z8 | 
[V:4] z8 | 
[V:5] z8 | 
[V:6] z8 | 
[V:1] G4z4 | 
[V:2] G8 | 
[V:3] z8 | 
[V:4] z8 | 
[V:5] z8 | 
[V:6] z8 | 
[V:1] A4B4- | 
[V:2] z4d4 | 
[V:3] z8 | 
[V:4] z8 | 
[V:5] z8 | 
[V:6] z8 | 
[V:1] B2G2G2c2- | 
[V:2] e6c2 | 
[V:3] z8 | 
[V:4] z8 | 
[V:5] z8 | 
[V:6] z8 | 
[V:1] c2B2A2G2 | 
[V:2] c2g2f2e2- | 
[V:3] z8 | 
[V:4] z8 | 
[V:5] z8 | 
[V:6] z8 | 
[V:1] F2D2E4 | 
[V:2] edd3^c^cB | 
[V:3] z8 | 
[V:4] z8 | 
[V:5] z8 | 
[V:6] z8 | 
[V:1] D8 | 
[V:2] d4z2d2 | 
[V:3] z8 | 
[V:4] z8 | 
[V:5] z8 | 
[V:6] z8 | 
[V:1] z2D2F3G | 
[V:2] f3ga2d2 | 
[V:3] z8 | 
[V:4] z8 | 
[V:5] z8 | 
[V:6] z8 | 
[V:1] A2DEFGA2- | 
[V:2] f3ed2c2 | 
[V:3] z8 | 
[V:4] z8 | 
[V:5] z8 | 
[V:6] z8 | 
[V:1] AGG4^F2 | 
[V:2] B2G2A4 | 
[V:3] z8 | 
[V:4] z8 | 
[V:5] z8 | 
[V:6] z8 | 
[V:1] G2D2F3G | 
[V:2] G4z2d2 | 
[V:3] z8 | 
[V:4] z8 | 
[V:5] z8 | 
[V:6] z8 | 
[V:1] A2DEFGA2- | 
[V:2] f3ed2c2 | 
[V:3] z8 | 
[V:4] z8 | 
[V:5] z8 | 
[V:6] z8 | 
[V:1] AGG4^F2 | 
[V:2] B2G2A4 | 
[V:3] z8 | 
[V:4] z8 | 
[V:5] z8 | 
[V:6] z8 | 
[V:1] G2DEFGA2 | 
[V:2] GABcdefg | 
[V:3] z8 | 
[V:4] z8 | 
[V:5] z8 | 
[V:6] z8 | 
[V:1] D2dcBAG2 | 
[V:2] a2d2gfed | 
[V:3] z8 | 
[V:4] z8 | 
[V:5] z8 | 
[V:6] z8 | 
[V:1] cBAGFED2 | 
[V:2] c2fedcBA | 
[V:3] z8 | 
[V:4] z8 | 
[V:5] z8 | 
[V:6] z8 | 
[V:1] dcBAGFED | 
[V:2] G2gfedcB | 
[V:3] z8 | 
[V:4] z8 | 
[V:5] z8 | 
[V:6] z8 | 
[V:1] FGABc3B | 
[V:2] AGc3BAG | 
[V:3] z8 | 
[V:4] z8 | 
[V:5] z8 | 
[V:6] z8 | 
[V:1] AGG3^FFE | 
[V:2] F2G2A4 | 
[V:3] z8 | 
[V:4] z8 | 
[V:5] z8 | 
[V:6] z8 | 
[V:1] G8 ||  
[V:2] G8 ||  
[V:3] z8 ||  
[V:4] z8 ||  
[V:5] z8 ||  
[V:6] z8 ||  
[V:1]  [K:C] [K:clef=treble][M:3/1]z12 | 
[V:2]  [K:C] [K:clef=treble-8][M:3/1]d4d4e4 | 
[V:3]  [K:C] [K:clef=treble-8][M:3/1]z12 | 
[V:4]  [K:C] [K:clef=treble-8][M:3/1]z12 | 
[V:5]  [K:C] [K:clef=bass][M:3/1]z12 | 
[V:6]  [K:C] [K:clef=bass][M:3/1]z12 | 
[V:1] z12 | 
[V:2] f8e4 | 
[V:3] z12 | 
[V:4] z12 | 
[V:5] D,4D,4E,4 | 
[V:6] z12 | 
[V:1] A4A4B4 | 
[V:2] c4d8 | 
[V:3] z12 | 
[V:4] z12 | 
[V:5] F,8G,4 | 
[V:6] z12 | 
[V:1] c8B4 | 
[V:2] c6B2G4 | 
[V:3] z12 | 
[V:4] A4A4B4 | 
[V:5] A,4F,4G,4 | 
[V:6] z12 | 
[V:1] G4A6G2 | 
[V:2] g4f4d4 | 
[V:3] z12 | 
[V:4] c8B4 | 
[V:5] E,4F,4G,4 | 
[V:6] z12 | 
[V:1] G4c8 | 
[V:2] e4c6d2 | 
[V:3] e4e4f4 | 
[V:4] G4A8 | 
[V:5] C,8z4 | 
[V:6] z12 | 
[V:1] B4G4A4 | 
[V:2] e8z4 | 
[V:3] g8f4 | 
[V:4] G4c8 | 
[V:5] z12 | 
[V:6] E,4E,4F,4 | 
[V:1] B8z4 | 
[V:2] z12 | 
[V:3] d4e6d2 | 
[V:4] B4G4A4 | 
[V:5] z12 | 
[V:6] G,8F,4 | 
[V:1] z12 | 
[V:2] z12 | 
[V:3] d4g8 | 
[V:4] B2d4^cB^c4 | 
[V:5] z12 | 
[V:6] D,4E,8 | 
[V:1] z12 | 
[V:2] d4d4e4 | 
[V:3] f6e2c4 | 
[V:4] d6c2A4 | 
[V:5] z12 | 
[V:6] D,8z4 | 
[V:1] z12 | 
[V:2] f8e4 | 
[V:3] d6c2B4 | 
[V:4] z12 | 
[V:5] D,4D,4E,4 | 
[V:6] z12 | 
[V:1] A4A4B4 | 
[V:2] c4d8 | 
[V:3] A8z4 | 
[V:4] z12 | 
[V:5] F,8G,4 | 
[V:6] z12 | 
[V:1] c8B4 | 
[V:2] c6B2G4 | 
[V:3] z12 | 
[V:4] A4A4B4 | 
[V:5] A,4F,4G,4 | 
[V:6] z12 | 
[V:1] G4A6G2 | 
[V:2] g4f4d4 | 
[V:3] z12 | 
[V:4] c8B4 | 
[V:5] E,4F,4G,4 | 
[V:6] z12 | 
[V:1] G4c8 | 
[V:2] e4c6d2 | 
[V:3] e4e4f4 | 
[V:4] G4A8 | 
[V:5] C,8z4 | 
[V:6] z12 | 
[V:1] B4G4A4 | 
[V:2] e8z4 | 
[V:3] g8f4 | 
[V:4] G4c8 | 
[V:5] z12 | 
[V:6] E,4E,4F,4 | 
[V:1] B8z4 | 
[V:2] z12 | 
[V:3] d4e6d2 | 
[V:4] B4G4A4 | 
[V:5] z12 | 
[V:6] G,8F,4 | 
[V:1] z12 | 
[V:2] z12 | 
[V:3] d4g8 | 
[V:4] B2d4^cB^c4 | 
[V:5] z12 | 
[V:6] D,4E,8 | 
[V:1] A6G2A4 | 
[V:2] z4d6c2 | 
[V:3] f8z4 | 
[V:4] d8z4 | 
[V:5] z4z4D,4 | 
[V:6] D,8z4 | 
[V:1] B6G2G4 | 
[V:2] d4e6c2 | 
[V:3] z12 | 
[V:4] z12 | 
[V:5] G,6E,2E,4 | 
[V:6] z12 | 
[V:1] A8F4 | 
[V:2] c4A4d4 | 
[V:3] z12 | 
[V:4] z12 | 
[V:5] A,4F,4D,4 | 
[V:6] z12 | 
[V:1] D4E4F4 | 
[V:2] B4c4A4 | 
[V:3] z12 | 
[V:4] z12 | 
[V:5] G,4C,4D,4 | 
[V:6] z12 | 
[V:1] G8z4 | 
[V:2] G8z4 | 
[V:3] d6c2d4 | 
[V:4] z4G6F2 | 
[V:5] G,,8z4 | 
[V:6] z4z4G,,4 | 
[V:1] z12 | 
[V:2] z12 | 
[V:3] e6c2c4 | 
[V:4] G4A6F2 | 
[V:5] z12 | 
[V:6] C,6A,,2A,,4 | 
[V:1] z12 | 
[V:2] z12 | 
[V:3] d4e4c4 | 
[V:4] F4G4A4 | 
[V:5] z12 | 
[V:6] D,4C,4A,,4 | 
[V:1] z12 | 
[V:2] z12 | 
[V:3] d4c3BA4 | 
[V:4] D4E4F4 | 
[V:5] z12 | 
[V:6] B,,4C,4D,4 | 
[V:1] B4c4A4 | 
[V:2] d4e4d4 | 
[V:3] G8z4 | 
[V:4] G8z4 | 
[V:5] G,4E,4F,4 | 
[V:6] G,,4C,4D,4 | 
[V:1] G4E4F4 | 
[V:2] B4c4A4 | 
[V:3] z12 | 
[V:4] z12 | 
[V:5] G,4C,4D,4 | 
[V:6] G,,4z4z4 | 
[V:1] G8z4 | 
[V:2] G8z4 | 
[V:3] d4e4d4 | 
[V:4] B4c4A4 | 
[V:5] G,,4z4z4 | 
[V:6] G,4E,4F,4 | 
[V:1] z12 | 
[V:2] z12 | 
[V:3] B4c4A4 | 
[V:4] G4E4F4 | 
[V:5] z12 | 
[V:6] G,4C,4D,4 | 
[V:1] [M:2/1]G3ABcd2 | 
[V:2] [M:2/1]GABcd2G2- | 
[V:3] [M:2/1]G4z4 | 
[V:4] [M:2/1]G4z4 | 
[V:5] [M:2/1]G,4G,4 | 
[V:6] [M:2/1]G,,8 | 
[V:1] B2d3cA2 | 
[V:2] GABcdef2 | 
[V:3] d4d4 | 
[V:4] G3ABcd2 | 
[V:5] z8 | 
[V:6] z8 | 
[V:1] B3cd4 | 
[V:2] g4d4 | 
[V:3] z8 | 
[V:4] B2d3cA2 | 
[V:5] G,6F,2 | 
[V:6] G,,3A,,B,,C,D,2 | 
[V:1] z4z2d2- | 
[V:2] z8 | 
[V:3] d4d4 | 
[V:4] B2A2B4 | 
[V:5] G,2F,2G,2D,2- | 
[V:6] G,,2D,2G,,A,,B,,C, | 
[V:1] dcA2B4 | 
[V:2] d4d3e | 
[V:3] z4d4 | 
[V:4] A4z2G2 | 
[V:5] D,E,F,2G,4 | 
[V:6] D,4G,,4 | 
[V:1] A8- | 
[V:2] f8- | 
[V:3] d4DEFG | 
[V:4] A2DEFGA2 | 
[V:5] F,3G,A,2D,E, | 
[V:6] D,8- | 
[V:1] A8- | 
[V:2] f8- | 
[V:3] A2DEFGA2 | 
[V:4] DEFGA2D2 | 
[V:5] F,G,A,2D,4 | 
[V:6] D,8- | 
[V:1] A8- | 
[V:2] f8- | 
[V:3] D4d4 | 
[V:4] A8- | 
[V:5] F,6D,2 | 
[V:6] D,8- | 
[V:1] !fermata!A8 | 
[V:2] !fermata!f8 | 
[V:3] !fermata!d8 | 
[V:4] !fermata!A8 | 
[V:5] !fermata!D,8 | 
[V:6] !fermata!D,8 | 
[V:1] B8 | 
[V:2] g8 | 
[V:3] d8 | 
[V:4] G8 | 
[V:5] G,8 | 
[V:6] G,,8 | 
[V:1] B8 |]  
[V:2] g8 |]  
[V:3] d8 |]  
[V:4] G8 |]  
[V:5] G,8 |]  
[V:6] G,,8 |]  



